X:51
T:Dean Street
S:Jacques Dumont
Z:robin.beech@mcgill.ca
R:hornpipe
M:4/4
L:1/8
K:A
AECE A3B | c2ed cAAE | F3E D2B,2 | CDEC B,EDB, |
CB,A,B, CDEC | DCB,C DEFG | AGFG EFGB | A2AG A4 ::
cAeA cAeB | c2ed cAAE | FDAD FDAF | GABA GEEd |
cAeA cAeB | c2ed cAAE | effe dcBA | GABG A3B :|
